!!!ONB: MCCC : ICA0058_00 : Extracted Monophonic Melody
!!!COM: Alkan, Charles-Valentin
!!!OTL: Réconciliation, petit caprice pour piano
!!!SCT: Op.42
!!!ODT: 1857///
**kern
*staff1
*IPiano
*clefG2
*k[]
*C:
*M6/8
8e
8.g
16cc
=1
4.c
8d
8.e
16d
=2
4.c
8d
8.e
16d
=3
8c
8d
8e
8f
8.g
16a
=4
4.d
8e
8.g
16cc
=5
4.f
8e-
8.f
16e-
=6
4.d
8a
8.b
16a
=7
8g
8gg
8ee
8cc
8a
8f
=8
8e
8.d
16c
8e
8.g
16cc
=9
4.c
8d
8.e
16d
=10
4.c
8d
8.e
16d
=11
8c
8d
8e
8f
8.g
16a
=12
4.d
8e
8.g
16cc
=13
4.f
8e-
8.f
16e-
=14
4.d
8a
8.b
16a
=15
8g
8gg
8ee
8cc
8a
8f
=16
8e
8.d
16c
8g
8.b
16dd
=17
4.g
8a-
8.cc
16ee-
=18
4.a
8b-
8.dd
16ff
=19
4.b
8cc
8.ee-
16gg
=20
4.cc#
8dd
8.b
16cc
=21
4.cc#
8dd
8.b
16cc
=22
4.cc#
8dd
8.aa-
16gg
=23
8b
8.ff
16ee
8a-
8.ee-
16dd
=24
8g
8.dd-
16cc
8b-
8a-
8g
=25
8f#
8f
8e
8e-
8d
8f
=26
8e
8e-
8d
8e-
8d
8e
=27
8d
8e
8d
8e
8.g
16cc
=28
4.c
8d
8.e
16d
=29
4.c
8a
8.b
16a
=30
8g
8gg
8ee
8cc
8a
8f
=31
8e
8.d
16c
8g
8.b
16dd
=32
4.g
8a-
8.cc
16ee-
=33
4.a
8b-
8.dd
16ff
=34
4.b
8cc
8.ee-
16gg
=35
4.cc#
8dd
8.b
16cc
=36
4.cc#
8dd
8.b
16cc
=37
4.bb-
8aa
8.aa-
16gg
=38
8b
8.ff
16ee
8a-
8.ee-
16dd
=39
8g-
8.dd-
16cc
8b-
8a-
8g
=40
8f#
8f
8e
8e-
8d
8g
=41
8f#
8f
8e
8e-
8d
8e-
=42
8d
8e-
8d
8e
8d
8e
=43
8d
8e
8d
20.e
20.g
20.cc
20.ee
20.gg
=44
4.c
8d
8.e
16d
=45
8c
8B
8B-
8d
8.e
16d
=46
8c
8d
8e
8f
8.g
16a
=47
4.d
8e
8g[
16g]
16cc
=48
4.f
8e-
8.f
16e-
=49
4.d
8a
8.b
16a
=50
8g
8gg
8ee
8cc
8a
8f
=51
4r
8r
8e
8.d
16c
=52
*k[b-e-a-d-]
*A-:
4.cc
8dd-
8.ee-
16dd-
=53
4.cc
16c
16e-
16a-
4.aa-
16a-
16cc
16ff
=54
4.b-
16d-
16f
16a-
8cc
8.b-
16f
16a-
16a
=55
4.b-
16d-
16e-
16g
4.e-
16E-
16B-
16d-
=56
4.cc
16c
16e-
16a-
8dd-
8.ee-
16d-
16a-
16dd-
=57
4.cc
16c
16e-
16a-
4.aa-
16a-
16cc
16ee-
=58
4.g
16G
16c
16e-
8ee-
8.ff
16f#
8cc
16ee-
=59
[4dd
16dd]
16ee-
[4cc
16cc]
16b
=60
16r
16dd-
16e-
16g
16dd-
16ee-
16r
16a
16e-
16g-
16a
16ee-
=61
16r
16dd-
16e-
16g
16dd-
16ee-
16r
16gg
16e-
16g
16dd-
16ee-
=62
16r
16cc
16e-
16a-
16cc
16ee-
16r
16ee-
16a-
16cc
16ff
16dd-
=63
16r
16ee-
16cc
16ee-
16ccc
16bb-
16aa-
16ff
16ee-
16cc
16a-
16f
=64
16r
16dd-
16e-
16g
16dd-
16ee-
16r
16a
16e-
16g-
16a
16ee-
=65
16r
16dd-
16e-
16g
16dd-
16ee-
16r
8.ff-
16dd-
16ee-
=66
16r
16cc-
16e-
16a-
16cc-
16ee-
16r
16ee-
16a-
16cc-
16ff-
16dd-
=67
16r
16ee-
16cc-
16ee-
16ccc-
16aa-
*k[f#c#g#]
*A:
16r
16dd
16b
16dd
16bb
16ee
=68
4.cc#
8dd
8.ee
16dd
=69
4.cc#
16aa
16cc#
16ff#
16a
16cc#
16ff#
=70
16b
16f#
16a
16B
16f#
16a
16cc#
16f#
16b
16B
16f#
16a#
=71
16b
16e
4a
16B
16e
16a
16b#
4d
16e
16B#
16d
16e
=72
*k[]
*C:
16r
16a
16e
16a
16cc
16ee
16r
16a
16f
16a
16dd
16ff
=73
16r
16a
16e
16a
16cc
16ee
16r
16f
16e-
16f
16cc
16ee-
=74
16r
16f
16d
16f
16b-
16dd
16r
16e-
16c
16e-
16a
16cc
=75
16r
16g#
16B
16e
16g#
16b
16r
16a
16B
16d#
16a
16b
=76
4.e
8f
8.g
16f
=77
16r
16g#
16B
16e
16g#
16b
16r
16a
16B
16d#
16a
16b
=78
4.e
8f
8.a
16cc
=79
4r
8r
8f
8.a
16cc
=80
4r
8r
8f
8.a
16cc
=81
2.r
=82
8e
8.g#
16b
8r
4r
=83
8f#
8g
8a
8e
8f
8g
=84
8c
8b-
8a
8c
8a
8g
=85
8c
8g
16f#
16r
8aa
8.bb
16aa
=86
8gg
8ggg
8eee
8ccc
8aa
8ff
=87
8ee
8.dd
16ee
4r
8r
=88
*M5/4
4r
1eee
=89
8a
4b
8cc
8.b
16a
8.g#
16b
4a
=90
8a
4b
8cc
8.b
16a
12g#
12a
12b
4a
=91
8a
4b
8cc
8.dd
16ee
12ff
12gg
12ee
4ff
=92
8ee
4ff
8ee
8.dd
16cc
12b
12cc
12a
8.b
16cc
=93
8a
4b
8cc
8.b
16a
8.g#
16b
4a
=94
8a
4b
8cc
8.b
16a
12g#
12a
12b
4a
=95
8a
4b
8cc
8.dd
16ee
12ff
12gg
12ee
4ff
=96
8ee
4ff
8ee
8.dd
16cc
12b
12cc
12b
4a
=97
8gg
4aa
8bb-
8.aa
16gg
8.ff#
16aa
4gg
=98
8ee
4ff
8gg
8.ff
16ee
12dd
12ee
12cc
4dd
=99
4gg
4r
4gg
4ff#
4ff
=100
4ee
4r
4ee
4ee-
4dd
=101
4gg
4r
4gg
4ff#
4ff
=102
4ee
4r
4ee
4dd#
4dd
=103
8a
4b
8cc
8.b
16a
8.g#
16b
4a
=104
8a
4b
8cc
8.b
16a
12g#
12a
12b
4a
=105
8a
4aa
8gg
8.ff
16ee
12dd
12ee
12ff
4ee
=106
8ee
4ff
8ee
8.dd
16cc
12b-
12cc
12b-
4a
=107
8gg
4aa
8bb-
8.aa
16gg
8.ff#
16aa
4gg
=108
8ee
4ff
8gg
8.ff
16ee
12dd
12ee
12cc
4dd
=109
4gg
4r
4gg
4ff#
4ff
=110
4ee
4r
4ee
4ee-
4dd
=111
4gg
4r
4gg
4ff#
4ff
=112
4ee
4r
4ee
4dd#
4dd
=113
8a
4b
8cc
8.b
16a
8.g#
16b
4a
=114
8a
4b
8cc
8.b
16a
12g#
12a
12b
4a
=115
8a
4aa
8gg
8.ff
16ee
12dd
12ee
12ff
4ee
=116
8ee
4ff
8ee
8.dd
16cc
12b-
12cc
12b-
4a
=117
*k[b-]
*F:
12b-
12cc
12b-
8a
16r
16b-
8cc
16r
16dd
8ee
16r
16ff
4cc
=118
12b-
12cc
12b-
8a
16r
16b-
8cc
16r
16b-
12a
12b-
12a
4g
=119
12b-
12cc
12b-
8a
16r
16b-
8cc
16r
16dd
8ee
16r
16ff
4cc
=120
12b-
12cc
12b-
8a
16r
16b-
8cc
16r
16b-
12a
12b-
12a
4g
=121
12cc
12dd
12cc
8b-
16r
16cc
8dd
16r
16ee
8ff#
16r
16gg
4dd
=122
12cc
12dd
12cc
8b-
16r
16cc
8dd
16r
16cc
12b-
12cc
12b-
4a
=123
12ee-
12ff
12ee-
8dd
16r
16ee-
8ff
16r
16gg
8aa
16r
16bb-
4ff
=124
12ee-
12ff
12ee-
8dd
16r
16ee-
8ff
16r
16ee-
12dd
12cc
12dd
4ee-
=125
12cc
12dd
12cc
8b-
16r
16cc
12dd
12cc
12b-
8a
16r
16b-
4cc
=126
12a-
12b-
12a-
8g
16r
16a-
12b-
12a-
12g
8f#
16r
16g
4a
=127
8d
16r
16dd
8d
16r
16dd
8d
16r
16dd
8d
16r
16dd
8d
16r
16dd
=128
8d
16r
16dd
8d
16r
16dd
8d
16r
16dd
8d
16r
16dd
8d
16r
16dd
=129
8d
16r
16dd
8d
16r
16dd
8d
16r
16dd
8d
16r
16dd
8d
16r
16dd
=130
12cc
12dd
12cc
8b
16r
16cc
8dd
16r
16ee
8ff#
16r
16gg
4dd
=131
12cc
12dd
12cc
8b
16r
16cc
8dd
16r
16cc
12b
12cc
12b
4a
=132
12cc
12dd
12cc
8b-
16r
16cc
8dd
16r
16ee
8ff#
16r
16gg
4dd
=133
12b-
12cc
12b-
12a
12b-
12cc
12b-
12cc
12a
12b-
12g
12a
4ff
=134
12cc
12dd
12cc
8b-
16r
16cc
8dd
16r
16ee
8ff#
16r
16gg
4dd
=135
12cc
12dd
12cc
8b-
16r
16cc
8dd
16r
16cc
12b-
12cc
12b-
4a
=136
12ee-
12ff
12ee-
8dd
16r
16ee-
8ff
16r
16gg
8aa
16r
16bb-
4ff
=137
12ee-
12ff
12ee-
8dd
16r
16ee-
8ff
16r
16ee-
12dd
12cc
12dd
4ee-
=138
12cc
12dd
12cc
8b-
16r
16cc
12dd
12cc
12b-
8a
16r
16b-
4cc
=139
12a-
12b-
12a-
8g
16r
16a-
12b-
12a-
12g
8f#
16r
16g
4a
=140
8d
16r
16dd
8d
16r
16dd
8d
16r
16dd
8d
16r
16dd
8d
16r
16dd
=141
8d
16r
16dd
8d
16r
16dd
8d
16r
16dd
8d
16r
16dd
8d
16r
16dd
=142
8d
16r
16dd
8d
16r
16dd
8d
16r
16dd
8d
16r
16dd
8d
16r
16dd
=143
12cc
12dd
12cc
8b
16r
16cc
8dd
16r
16ee
8ff#
16r
16gg
4dd
=144
12cc
12dd
12cc
8b
16r
16cc
8dd
16r
16cc
12b
12cc
12b
4a
=145
12cc
12dd
12cc
8b-
16r
16cc
8dd
16r
16ee
8ff#
16r
16gg
4dd
=146
12b-
12cc
12b-
12a
12b-
12cc
12b-
12cc
12a
12b-
12g
12a
4ff
=147
*k[]
*C:
8a
4b
8cc
8.b
16a
8.g#
16b
4a
=148
8a
4b
8cc
8.b
16a
12g#
12a
12b
4a
=149
8a
4b
8cc
8.dd
16ee
12ff
12gg
12ee
4ff
=150
8ee
4ff
8ee
8.dd
16cc
12b
12cc
12a
8.b
16cc
=151
8a
4b
8cc
8b
16r
16a
12g#
12a
12b
4a
=152
12a
12b
12cc
12b
12cc
12b
12a
12b
12a
12g#
12a
12b
4a
=153
8a
4b
8cc#
8.dd
16ee
12ff
12gg
12ee
4ff
=154
8ee
4aa
8ee
8dd
16r
16cc
12b-
12cc
12b-
4a
=155
8gg
4aa
8bb-
8aa
16r
16gg
8ff#
16r
16aa
4gg
=156
8ee
4ff
8gg
8ff
16r
16ee
12dd
12ee
12cc
4dd
=157
4gg
4r
4gg
4ff#
4ff
=158
4ee
4r
4ee
4ee-
4dd
=159
2ee
4ee
4ee
4ee
=160
8A
4B
8c
8B
16r
16A
8G#
16r
16B
4A
=161
12A
12B
12c
12B
12c
12B
12A
12B
12A
12G#
12A
12B
4A
=162
8A
4B
8c
8d
16r
16e
12f
12g
12e
4f
=163
8e
4f
8e
8d
16r
16c
12B
12c
12B
4A
=164
8e
4f
8e
8d
16r
16c
12B-
12c
12B-
4A
=165
8e
4f
8e
8e
4f
8e
8e
8f[
=166
8f]
8e
8e
8f
8f
8e
8e
4f
8e
=167
*M6/8
16e
16f
16g
16a
16b
16cc
=168
4.c
8d
8e
8f
8.g
16a
=169
32.e
32.f
32.f#
32.a
32.g
32.ee
32.dd
32.cc
=170
4.f
8e-
8.f
16e-
=171
4.d
32cc
32d
32f
32a
32cc#
32dd
32ccc
32aa
32ff
32dd
32cc
32a
=172
16g
8gg
8gg
8ee
8cc
8a
16f
=173
8e
8.d
16c
8e
8.d
16c
=174
4e
4.d
8c
=175
*M5/4
12ff
12gg
12ff
8ee
16r
16ff
8gg
16r
16aa
8bb
16r
16ccc
4gg
=176
12ff
12gg
12ff
12ee
12ff
12gg
12ff
12gg
12ee
12ff
12dd
12ee
4cccc
=177
==
*-
